ui/StatusQ/src/assets/img/icons/tiny/exclamation.svg

<svg fill="none" height="16" viewBox="0 0 16 16" width="16" xmlns="http://www.w3.org/2000/svg"><path clip-rule="evenodd" d="m8 2c-.69036 0-1.25.55964-1.25 1.25v4.5c0 .69036.55964 1.25 1.25 1.25s1.25-.55964 1.25-1.25v-4.5c0-.69036-.55964-1.25-1.25-1.25zm0 11.5c.69036 0 1.25-.5596 1.25-1.25s-.55964-1.25-1.25-1.25-1.25.5596-1.25 1.25.55964 1.25 1.25 1.25z" fill="#0d1625" fill-rule="evenodd"/></svg>

<svg width="16" height="16" viewBox="0 0 16 16" fill="none" xmlns="http://www.w3.org/2000/svg">
<path fill-rule="evenodd" clip-rule="evenodd" d="M8 2C7.30964 2 6.75 2.55964 6.75 3.25V7.75C6.75 8.44036 7.30964 9 8 9C8.69036 9 9.25 8.44036 9.25 7.75V3.25C9.25 2.55964 8.69036 2 8 2ZM8 13.5C8.69036 13.5 9.25 12.9404 9.25 12.25C9.25 11.5596 8.69036 11 8 11C7.30964 11 6.75 11.5596 6.75 12.25C6.75 12.9404 7.30964 13.5 8 13.5Z" fill="#0D1625"/>
</svg>
